X: 10862
Q: "Slowish"
M: 6/8
L: 1/8
K: Bb
{Bc}d.B.B Tc.B.B | fdg fdb |\
gcc Tc>de/f/ | gec c2B/c/ |\
{Bc}dBB TcBB | (fdb) Hbag |\
{g}fe/d/c/B/ fdB |
|: d/e/ |\
(f/g/)f/d/b f/g/f/d/b | gcc Tc>de/c/ |\
(f/g/f/)d/b f/g/f/d/b | TGFB TB2d/e/ |\
(fdB) ({B}fdB) | fgg Tg>ab |
(fd).B (fd).B | ecc c2d/e/ |\
(fd).B (fd).B | fga Hb2a/g/ |\
fdB fdB | (cc/d/)e/c/ Hg2f/"_D.C."e/ !segno!|]\
d/B/ |\
(F_A).A (GB).B |
(F_A).A (GB).B | A/F/G/A/F B2B/c/ |\
dBF dBf | dBB e(f/e/d/)c/ |\
dBF dBf | dBB "_D.C.al Segno"He2f/e/ !segno!|]


